!!!COM: Beethoven, Ludwig van
!!!CDT: 1770///-1827///
!!!OTL: Piano Sonata no. 25 in G major
!!!OTP: cuckoo
!!!OPS: 79
!!!OMV: 1
!!!OMD: Presto alla tedesca
**kern	**kern	**dynam
*staff2	*staff1	*staff1/2
*Ipiano	*Ipiano	*Ipiano
*>[I,A,A2,A,A2,B,B1,B,B2,C]	*>[I,A,A2,A,A2,B,B1,B,B2,C]	*>[I,A,A2,A,A2,B,B1,B,B2,C]
*>norep[I,A,A2,B,B2,C]	*>norep[I,A,A2,B,B2,C]	*>norep[I,A,A2,B,B2,C]
*>I	*>I	*>I
*clefF4	*clefG2	*
*k[f#]	*k[f#]	*
*G:	*G:	*
*M3/4	*M3/4	*
*MM200	*MM200	*
=1-	=1-	=1-
8G 8BL	4g' 4gg'	f
8d	.	.
8G 8B	4b' 4bb'	.
8d	.	.
8G 8B	4g' 4gg'	.
8dJ	.	.
=2!|:	=2!|:	=2!|:
*>A	*>A	*>A
8G 8BL	2dd (2ddd	.
8d	.	.
8G 8B	.	.
8d	.	.
8G 8B	8cccL	.
8dJ	8bbJ	.
=3	=3	=3
8G 8BL	8aaL	.
8d	8gg	.
8G 8B	8ff#	.
8d	8gg	.
8G 8B	8bb	.
8dJ	8ggJ)	.
=4	=4	=4
8G 8cL	(4ff#	.
8e	.	.
8G 8c	4ee)	.
8e	.	.
8G 8c	(8ddL	.
8eJ	8ccJ	.
=5	=5	=5
8G 8cL	8bL<	.
8e	8a	.
8G 8c	8g#	.
8e	8a	.
8G 8c	8cc	.
8eJ	8aJ)	.
!!LO:LB:g=original
=6	=6	=6
8G 8A 8cL	2f#	.
8d	.	.
8G 8A 8c	.	.
8d	.	.
8G 8A 8c	4a'	.
8dJ	.	.
=7	=7	=7
8G 8A 8cL	4cc'/	.
8d	.	.
8G 8A 8c	4a'	.
8d	.	.
8G 8A 8c	4f#'	.
8dJ	.	.
=8	=8	=8
2.G 2.B	8gL	f
.	8d	.
.	8c#	.
.	8d	.
.	8f#	.
.	8gJ	.
=9	=9	=9
2.FF# 2.D 2.F#	8aL	.
.	8d	.
.	8c#	.
.	8d	.
.	8g	.
.	8aJ	.
=10	=10	=10
2GG 2D 2G	8bL	.
.	8g	.
.	8f#	.
.	8g	.
8AA 8AL	8ccn	.
8BB 8BJ	8ddJ	.
=11	=11	=11
4C 4c	8eeL	.
.	8dd	.
4C 4c	8cc	.
.	8b	.
4C# 4c#	8a	.
.	8gJ	.
!!LO:LB:g=original
=12	=12	=12
8D 8dL	4f#	.
8D	.	.
8F#	8r	.
!	!	!LO:DY:t=%s leggieremente
8AJ	8dL	p
4r	8f#	.
.	8aJ	.
=13	=13	=13
2.r	8ddL	.
.	8f#	.
.	8a	.
.	8dd	.
.	8ff#	.
.	8aJ	.
=14	=14	=14
2.r	8ddL	.
.	8ff#	.
.	8aa	.
.	8dd	.
.	8ff#	.
.	8aaJ	.
=15	=15	=15
2.r	8dddL	.
.	8ff#	.
.	8aa	.
.	8ddd	.
.	8fff#	.
.	8eeeJ	.
=16	=16	=16
8BBL	4ddd	.
8D	.	.
8F#	8r	.
8BJ	8dL	.
4r	8f#	.
.	8bJ	.
=17	=17	=17
2.r	8ddL	.
.	8f#	.
.	8b	.
.	8dd	.
.	8ff#	.
.	8bJ	.
!!LO:LB:g=original
=18	=18	=18
2.r	8ddL	.
.	8ff#	.
.	8bb	.
.	8dd	.
.	8ff#	.
.	8bbJ	.
=19	=19	=19
2.r	8dddL	.
.	8ff#	.
.	8bb	.
.	8ddd	.
.	8fff#	.
.	8eeeJ	.
=20	=20	=20
8GG#L<	4ddd	.
8BB	.	.
8D	8r	.
8EJ	8dL	.
4G#	8e	.
.	8g#J	.
=21	=21	=21
2.r	8bL	.
.	8e	.
.	8g#	.
.	8b	.
.	8dd	.
.	8g#J	.
=22	=22	=22
2.r	8bL	.
.	8dd	.
.	8gg#	.
.	8b	.
.	8dd	.
.	8gg#J	.
=23	=23	=23
4r	8bbL	.
.	8gg#	.
4G# 4B	8ee	.
.	8ff#	.
4G# 4B 4d	8ee	.
.	8ff#J	.
!!LO:LB:g=original
=24	=24	=24
*	*^	*
!	!	!	!LO:HP:i:t=%s e legato
4A	2.cc# 2.ee	8c#L	<
.	.	8d	.
4r	.	8e	.
.	.	8f#	.
4r	.	8g#	.
.	.	8aJ	.
=25	=25	=25	=25
2.r	2.dd 2.ee	8g#L	.
.	.	8f#	.
.	.	8e	.
.	.	8d	.
.	.	8c#	.
.	.	8BJ	.
*	*v	*v	*
=26	=26	=26
8AL	2.ee 2.ggn	sf
8Gn	.	.
8F#	.	.
8E	.	.
8D	.	.
8C#J	.	.
=27	=27	=27
8DL	4dd 4ff#	p
8E	.	.
8F#	4dd 4ff#	.
8G#	.	.
8A	4dd 4ff#	.
8BJ	.	.
=28	=28	=28
*	*^	*
4A	2.cc# 2.ee	8c#L	.
.	.	8d	.
4ryy	.	8e	<
.	.	8f#	.
4ryy	.	8g#	.
.	.	8aJ	.
=29	=29	=29	=29
2.r	2.dd 2.ee	8g#L	.
.	.	8f#	.
.	.	8e	.
.	.	8d	.
.	.	8c#	.
.	.	8BJ	.
*	*v	*v	*
!!LO:LB:g=original
=30	=30	=30
8AL	2.ee 2.ggn	sf
8Gn	.	.
8F#	.	.
8E	.	.
8D	.	.
8C#J	.	.
=31	=31	=31
8DL	4dd 4ff#	p
8E	.	.
8F#	4dd 4ff#	.
8G#	.	.
8A	4dd 4ff#	.
8BJ	.	.
=32	=32	=32
[2.A 2.c# 2.e	8cc# (8eeL	p
.	8dd	.
.	8ee	.
.	8ff#	.
.	8gg#	.
.	8aaJ	.
=33	=33	=33
2.A] 2.B 2.d	8gg#L	.
.	8ff#	.
.	8ee	.
.	8dd	.
.	8cc#	.
.	8bJ)	.
=34	=34	=34
[2.A 2.d 2.g#	(8ddL	.
.	8ee	.
.	8ff#	.
.	8gg#	.
.	8aa	.
.	8bbJ	.
=35	=35	=35
2.A] 2.c# 2.e	8aaL	.
.	8ggn	.
.	8ff#	.
.	8ee	.
.	8dd	.
.	8cc#J)	.
!!LO:LB:g=original
=36	=36	=36
*ped	*	*
2.A 2.c# 2.e 2.gn	8eeL	.
.	8ggn	.
.	8ccc#	<
.	8gg	.
.	8eee	.
*Xped	*	*
.	8ccc#J	.
=37	=37	=37
*ped	*	*
!	!	!LO:DY:rj
2.B- 2.c# 2.e 2.g	8eeeL	sf
.	8ccc#	.
.	8eee	.
.	8ccc#	.
.	8eee	.
*Xped	*	*
.	8ccc#J	.
=38	=38	=38
*ped	*	*
!	!	!LO:DY:rj
2A 2c# 2e 2g	8eeeL	sf
.	8ccc#	.
.	8aa	.
.	8bb	.
4G 4c# 4e	8ccc#	.
*Xped	*	*
.	8aaJ	.
=39	=39	=39
2F# 2A 2d	8dddL	>
.	8aa	.
.	8ddd	.
.	8aa	.
4D 4A 4d	8ff#	.
.	8ddJ	.
*clefG2	*	*
=40	=40	=40
*ped	*	*
2.A 2.c# 2.e 2.g	8eeL	<
.	8gg	.
.	8ccc#	.
.	8gg	.
.	8eee	.
*Xped	*	*
.	8ccc#J	.
=41	=41	=41
*ped	*	*
2.B- 2.c# 2.e 2.g	8eeeL	f
.	8ccc#	.
.	8eee	.
.	8ccc#	.
.	8eee	.
*Xped	*	*
.	8ccc#J	.
!!LO:LB:g=original
=42	=42	=42
*ped	*	*
2A 2c# 2e 2g	8eeeL	sf
.	8ccc#	.
.	8aa	.
.	8bb	.
*clefF4	*	*
4G 4c# 4e	8ccc#	.
*Xped	*	*
.	8aaJ	.
=43	=43	=43
2F# 2A 2d	8dddL	>
.	8aa	.
.	8ddd	.
.	8aa	.
4D 4A 4d	8ff#	.
.	8ddJ	.
=44	=44	=44
4G 4B 4d	8bbL	p
.	8gg	.
4r	8bb	.
.	8gg	.
4G 4B 4e	8dd	.
.	8bJ	.
=45	=45	=45
4A 4d 4f#	2a	.
4r	.	.
*clefG2	*	*
4A 4c# 4g	4eeT	.
*clefF4	*	*
=46	=46	=46
8D 8F#L	4dd	f
8A	.	.
8D 8F#	4a' 4aa'	.
8A	.	.
8D 8F#	4d' 4dd'	.
8AJ	.	.
=47	=47	=47
8D 8E 8GL	4r	.
8A	.	.
8D 8E 8G	4g' 4gg'	.
8A	.	.
8D 8E 8G	4c#' 4cc#'	.
8AJ	.	.
!!LO:LB:g=original
=48	=48	=48
4r	4r	.
4D'/	4d' 4dd'	p
4BB'	4B' 4b'	.
=49	=49	=49
4r	4r	.
4C'	4cn' 4ccn'	.
4AA'	4A' 4a'	.
=50	=50	=50
*>A1	*>A1	*>A1
4GG'	4g' 4gg'	f
8G 8BL	4b' 4bb'	.
8d	.	.
8G 8B	4g' 4gg'	.
8dJ	.	.
=51:|!	=51:|!	=51:|!
*>A2	*>A2	*>A2
4r	4r	.
4BB' 4B'	4b' 4bb'	f
4GG#'\ 4G#'\	4g#' 4gg#'	.
=52	=52	=52
4r	4r	.
4AA' 4A'	4a' 4aa'	.
4FF#'\ 4F#'\	4f#' 4ff#'	.
=53!|:	=53!|:	=53!|:
*>B	*>B	*>B
8E 8G#L	4e'\ 4ee'\	.
8B	.	.
8E 8G#	4g#' 4gg#'	.
8B	.	.
8E 8G#	4e'\ 4ee'\	.
8BJ	.	.
=54	=54	=54
8E 8G#L	2b (2bb	sf
8B	.	.
8E 8G#	.	.
8B	.	.
8E 8G#	8aaL	.
8BJ	8gg#J	.
!!LO:LB:g=original
=55	=55	=55
8E 8G#L	8ff#L	.
8B	8ee	.
8E 8G#	8dd#	.
8B	8ee	.
8E 8G#	8gg#	.
8BJ	8eeJ)	.
=56	=56	=56
8E 8AL	(4dd#	.
8c#	.	.
8E 8A	4cc#)	.
8c#	.	.
8E 8A	(8bL	.
8c#J	8aJ	.
=57	=57	=57
8E 8AL	8g#L	.
8c#	8f#	.
8E 8A	8e#	.
8c#	8f#	.
8E 8A	8a	.
8c#J	8f#J)	.
=58	=58	=58
8E 8F# 8AL	2d#	.
8B	.	.
8E 8F# 8A	.	.
8B	.	.
8E 8F# 8A	4f#	.
8BJ	.	.
=59	=59	=59
8E 8F# 8AL	4a'	.
8B	.	.
8E 8F# 8A	4f#'	.
8B	.	.
8E 8F# 8A	4d#'	.
8BJ	.	.
=60	=60	=60
*ped	*	*
4E	8eL	.
.	8B	.
*clefG2	*	*
4b'z	8g#	.
.	8B	.
4g#'	8e	.
.	8BJ	.
!!LO:LB:g=original
=61	=61	=61
*clefF4	*	*
4E	8eL	.
.	8B	.
*clefG2	*	*
4b'z	8g#	.
.	8B	.
4g#'	8e	.
.	8BJ	.
*clefF4	*	*
=62	=62	=62
4E	8eL	.
.	8B	.
*clefG2	*	*
4b'z	8g#	.
.	8B	.
4g#'	8e	.
*Xped	*	*
.	8BJ	.
*clefF4	*	*
=63	=63	=63
*ped	*	*
4BB	8d#L	.
.	8B	.
*clefG2	*	*
4az	8f#	.
.	8B	.
4f#	8d#	.
.	8BJ	.
*clefF4	*	*
=64	=64	=64
4BB	8d#L	.
.	8B	.
*clefG2	*	*
4az	8f#	.
.	8B	.
4f#	8d#	.
.	8BJ	.
*clefF4	*	*
=65	=65	=65
4BB	8d#L	.
.	8B	.
*clefG2	*	*
4az	8f#	.
.	8B	.
4f#	8d#	.
.	8BJ	.
*clefF4	*	*
=66	=66	=66
4BB	8d#L	.
.	8B	.
*clefG2	*	*
4az	8f#	.
.	8B	.
4f#	8d#	.
*Xped	*	*
.	8BJ	.
*clefF4	*	*
!!LO:LB:g=original
=67	=67	=67
*ped	*	*
4E	8eL	p
.	8B	.
*clefG2	*	*
4gn	8e	.
.	8B	.
4g	8e	.
*Xped	*	*
.	8BJ	.
*clefF4	*	*
=68	=68	=68
*ped	*	*
4C	8cL	.
!	!LO:TX:b:i:t=dolce	!
.	8G	.
*clefG2	*	*
4g	8e	.
.	8G	.
4e	8c	.
.	8GJ	.
*clefF4	*	*
=69	=69	=69
4C	8cL	.
.	8G	.
*clefG2	*	*
4g	8e	.
.	8G	.
4e	8c	.
.	8GJ	.
*clefF4	*	*
=70	=70	=70
4C	8cL	.
.	8G	.
*clefG2	*	*
4g	8e	.
.	8G	.
4e	8c	.
*Xped	*	*
.	8GJ	.
*clefF4	*	*
=71	=71	=71
*ped	*	*
4GG	8BL	.
.	8G	.
*Xped	*	*
*clefG2	*	*
4fn	8d	.
.	8G	.
4d	8B	.
.	8GJ	.
*clefF4	*	*
=72	=72	=72
4GG	8BL	.
.	8G	.
*clefG2	*	*
4fn	8d	.
.	8G	.
4d	8B	.
.	8GJ	.
*clefF4	*	*
!!LO:LB:g=original
=73	=73	=73
4GG	8BL	.
.	8G	.
*clefG2	*	*
4fn	8d	.
.	8G	.
4d	8B	.
.	8GJ	.
*clefF4	*	*
=74	=74	=74
4GG	8BL	.
.	8G	.
*clefG2	*	*
4fn	8d	.
.	8G	.
4d	8B	.
*Xped	*	*
.	8GJ	.
=75	=75	=75
*ped	*	*
4a	8cL	.
.	8G	.
*clefG2	*	*
4e	8c	.
.	8G	.
4e	8c	.
.	8GJ	.
*clefF4	*clefF4	*
=76	=76	=76
2.CC 2.GG 2.C	8cL	f
.	8G	.
.	8F#X	.
.	8G	.
.	8B	.
*Xped	*	*
.	8cJ	.
=77	=77	=77
2.BBB 2.DD 2.GG 2.BB	8dL	.
.	8G	.
.	8F#X	.
.	8G	.
.	8c	.
.	8dJ	.
*	*clefG2	*
=78	=78	=78
2CC 2GG 2C	8eL	.
.	8cn	.
.	8B	.
.	8c	.
8AAL	8fn	.
8EEJ	8gJ	.
!!LO:LB:g=original
=79	=79	=79
4FFn	8aL	.
.	8g	.
4FF	8fn	.
.	8e	.
4FF#	8d	.
.	8cJ	.
=80	=80	=80
4GG	4B	.
4r	4r	.
*clefG2	*	*
8dL	8ffnL	p
8eJ	8ggJ	.
=81	=81	=81
4fn'	8aaL	.
.	8gg	.
4f'	8ffn	.
.	8ee	.
4f#'	8dd	.
.	8ccJ	.
=82	=82	=82
4g	4b	.
4r	4r	.
*clefF4	*	*
8FnL	8fnL	p
8GJ	8gJ	.
=83	=83	=83
8A-L	8a-L	<
8G	8g	.
8Fn	8fn	.
8E-	8e-	.
8D	8d	.
8GJ	8gJ	.
=84	=84	=84
*ped	*	*
4C	8cL	f
.	8G	.
*clefG2	*	*
4gz	8e-	.
.	8G	.
4e-	8c	.
.	8GJ	.
*clefF4	*	*
!!LO:LB:g=original
=85	=85	=85
4C	8cL	.
.	8G	.
*clefG2	*	*
4gz	8e-	.
.	8G	.
4e-	8c	.
.	8GJ	.
*clefF4	*	*
=86	=86	=86
4C	8cL	.
.	8G	.
*clefG2	*	*
4gz	8e-	.
.	8G	.
4e-	8c	.
*Xped	*	*
.	8GJ	.
*clefF4	*	*
=87	=87	=87
*ped	*	*
4GG	8BL	.
.	8G	.
*clefG2	*	*
4fnz	8d	.
.	8G	.
4d	8B	.
.	8GJ	.
*clefF4	*	*
=88	=88	=88
4GG	8BL	.
.	8G	.
*clefG2	*	*
4fnz	8d	.
.	8G	.
4d	8B	.
.	8GJ	.
*clefF4	*	*
=89	=89	=89
4GG	8BL	.
.	8G	.
*clefG2	*	*
4fnz	8d	.
.	8G	.
4d	8B	.
.	8GJ	.
*clefF4	*	*
=90	=90	=90
4GG	8BL	.
.	8G	.
*clefG2	*	*
4fnz	8d	.
.	8G	.
4d	8B	.
*Xped	*	*
.	8GJ	.
*clefF4	*	*
!!LO:LB:g=original
=91	=91	=91
4C	8cL	p
.	8G	.
*clefG2	*	*
4e-	8c	.
.	8G	.
4fn	8d	.
.	8B-J	.
*clefF4	*	*
=92	=92	=92
!	!	!LO:DY:i:t=%s dolce
*ped	*	*
4E-	8e- 8gL	p
.	8B-	.
*clefG2	*	*
4b-	8g	.
.	8B-	.
4g	8e-	.
.	8B-J	.
*clefF4	*	*
=93	=93	=93
4E-	8e-L	.
.	8B-	.
*clefG2	*	*
4b-	8g	.
.	8B-	.
4g	8e-	.
.	8B-J	.
*clefF4	*	*
=94	=94	=94
4E-	8e-L	.
.	8B-	.
*clefG2	*	*
4b-	8g	.
.	8B-	.
4g	8e-	.
*Xped	*	*
.	8B-J	.
*clefF4	*	*
=95	=95	=95
*ped	*	*
4BB-	8dL	.
.	8B-	.
*clefG2	*	*
4a-	8fn	.
.	8B-	.
4fn	8d	.
.	8B-J	.
*clefF4	*	*
=96	=96	=96
4BB-	8dL	.
.	8B-	.
*clefG2	*	*
4a-	8fn	.
.	8B-	.
4fn	8d	.
.	8B-J	.
*clefF4	*	*
!!LO:LB:g=original
=97	=97	=97
4BB-	8dL	.
.	8B-	.
*clefG2	*	*
4a-	8fn	.
.	8B-	.
4fn	8d	.
.	8B-J	.
*clefF4	*	*
=98	=98	=98
4BB-	8dL	.
.	8B-	.
*clefG2	*	*
4a-	8fn	.
.	8B-	.
4fn	8d	.
*Xped	*	*
.	8B-J	.
*clefF4	*	*
=99	=99	=99
*ped	*	*
4E-	8e-L	.
.	8B-	.
*clefG2	*	*
4g	8e-	.
.	8B-	.
4g	8e-	.
.	8B-J	.
*clefF4	*	*
=100	=100	=100
2.EE- 2.BB- 2.E-	8e-L	f
.	8B-	.
.	8An	.
.	8B-	.
.	8d	.
*Xped	*	*
.	8e-J	.
=101	=101	=101
2.DD 2.BB- 2.D	8fnL	.
.	8B-	.
.	8A	.
.	8B-	.
.	8e-	.
.	8fJ	.
=102	=102	=102
2EE- 2BB- 2E-	8gL	.
.	8e-	.
.	8d	.
.	8e-	.
8CL	8a-	.
8GGJ	8b-J	.
!!LO:LB:g=original
=103	=103	=103
4AA-	8ccL	.
.	8b-	.
4AA-	8a-	.
.	8g	.
4AAn	8fn	.
.	8e-J	.
=104	=104	=104
4BB-	4d	.
4r	4r	.
*clefG2	*	*
8ccL	8aa-L	p
8b-J	8bb-J	.
=105	=105	=105
4a-	8cccL	.
.	8bb-	.
4a-	8aa-	.
.	8gg	.
4an	8ffn	.
.	8ee-J	.
=106	=106	=106
4b-	4dd	.
4r	4r	.
*clefF4	*	*
8CL	8cL	f
8DJ	8dJ	.
=107	=107	=107
8E-L	8e-L	.
8D	8d	.
8C	8c	.
8BB-	8B-	.
8AAn	8An	.
8GGJ	8GJ	.
=108	=108	=108
*^	*	*
4F#X	4FF#X	4ryy	.
4r	4r	4r	.
*v	*v	*	*
*clefG2	*	*
*^	*	*
4ryy	8ccL	8cccL	p
.	8ddJ	8dddJ	.
*v	*v	*	*
!!LO:LB:g=original
=109	=109	=109
8ee-L	8eee-L	<
8dd	8ddd	.
8cc	8ccc	.
8b-	8bb-	.
8a	8aa	.
8gJ	8ggJ	.
=110	=110	=110
8f#XL	8ff#XL	.
8e-	8ee-	.
8d	8dd	.
8c	8cc	.
8B-	8b-	.
8AJ	8aJ	.
*clefF4	*	*
=111	=111	=111
4G	8gL	p
.	8f#X	.
4E-	8g	.
.	8a	.
4C#\	8b-	.
.	8gJ	.
=112	=112	=112
*ped	*	*
!	!LO:TX:b:i:t=dolce	!
4D	4f#X	.
*clefG2	*	*
4a	8f#L	.
.	8A	.
4f#X	8d	.
.	8AJ	.
*clefF4	*	*
=113	=113	=113
4D	8dL	.
.	8A	.
*clefG2	*	*
4a	8f#	.
.	8A	.
4f#	8d	.
.	8AJ	.
*clefF4	*	*
=114	=114	=114
4D	8dL	.
.	8A	.
*clefG2	*	*
4a	8f#	.
.	8A	.
4f#	8d	.
*Xped	*	*
.	8AJ	.
*clefF4	*	*
!!LO:LB:g=original
=115	=115	=115
*ped	*	*
4AA	8c#L	.
.	8A	.
*clefG2	*	*
4g	8en	.
.	8A	.
4en	8c#	.
.	8AJ	.
*clefF4	*	*
=116	=116	=116
4AA	8c#L	.
.	8A	.
*clefG2	*	*
4g	8e	.
.	8A	.
4e	8c#	.
.	8AJ	.
*clefF4	*	*
=117	=117	=117
4AA	8c#L	.
.	8A	.
*clefG2	*	*
4g	8e	.
.	8A	.
4e	8c#	.
.	8AJ	.
*clefF4	*	*
=118	=118	=118
4AA	8c#L	.
.	8A	.
*clefG2	*	*
4g	8e	.
.	8A	.
4e	8c#	.
*Xped	*	*
.	8AJ	.
*clefF4	*	*
=119	=119	=119
*ped	*	*
4D	8dL	.
.	8A	.
*clefG2	*	*
4f#	8a	.
.	8d	.
4d	8a	.
*Xped	*	*
.	8f#J	.
*clefF4	*	*
=120	=120	=120
4F#'	8a 8ddL	<
.	8d	.
4D'	8a 8dd	.
.	8d	.
4FF#'	8a 8dd	.
.	8dJ	.
!!LO:LB:g=original
=121	=121	=121
4DD	8a 8ddL	.
.	8d	.
4F#	8a 8dd	.
.	8d	.
4D	8a 8dd	.
.	8dJ	.
=122	=122	=122
4FF#	8a 8ccnL	.
.	8d	.
4DD	8a 8cc	.
.	8d	.
4F#	8a 8cc	.
.	8dJ	.
=123	=123	=123
4D	8a 8ccL	.
.	8d	.
4FF#	8a 8cc	.
.	8d	.
4DD	8a 8cc	.
.	8dJ	.
=124	=124	=124
*ped	*	*
4GG	4g 4gg	f
8G 8BL	4b' 4bb'	.
8d	.	.
8G 8B	4g' 4gg'	.
8dJ	.	.
=125	=125	=125
8G 8BL	2dd 2ddd	sf
8d	.	.
8G 8B	.	.
8d	.	.
8G 8B	(8cccL	.
*Xped	*	*
8dJ	8bbJ	.
=126	=126	=126
8G 8BL	8aaL	.
8d	8gg	.
8G 8B	8ff#	.
8d	8gg	.
8G 8B	8bb	.
8dJ	8ggJ)	.
!!LO:LB:g=original
=127	=127	=127
8G 8cL	(4ff#	.
8e	.	.
8G 8c	4ee)	.
8e	.	.
8G 8c	(8ddL	.
8eJ	8ccJ	.
=128	=128	=128
8G 8cL	8bL<	.
8e	8a	.
8G 8c	8g#	.
8e	8a	.
8G 8c	8cc	.
8eJ	8aJ	.
=129	=129	=129
8G 8A 8cL	2f#)	.
8d	.	.
8G 8A 8c	.	.
8d	.	.
.	(16bqLL	.
.	16aq	.
.	16g#qJJ	.
8G 8A 8c	4a)	.
8dJ	.	.
=130	=130	=130
8G 8A 8cL	4cc'	.
8d	.	.
8G 8A 8c	4a'	.
8d	.	.
8G 8A 8c	4f#'	.
8dJ	.	.
=131	=131	=131
2.G 2.B	8gL	f
.	8d	.
.	8c#	.
.	8d	.
.	8f#	.
.	8gJ	.
=132	=132	=132
2.F# 2.A	8aL	.
.	8d	.
.	8c#	.
.	8d	.
.	8g	.
.	8aJ	.
!!LO:LB:g=original
=133	=133	=133
2.G 2.B	8bL	.
.	8g	.
.	8f#	.
.	8g	.
.	8a	.
.	8bJ	.
=134	=134	=134
2.A 2.c	8ccnL	.
.	8g	.
.	8f#	.
.	8g	.
.	8b	.
.	8ccJ	.
=135	=135	=135
8BBL	4dd	p
8D	.	.
8G	8r	.
!	!LO:TX:b:i:t=leggieremente	!
8BJ	8dL	.
4r	8g	.
.	8bJ	.
=136	=136	=136
2.r	8ddL	.
.	8g	.
.	8b	.
.	8dd	.
.	8gg	.
.	8bJ	.
=137	=137	=137
2.r	8ddL	.
.	8gg	.
.	8bb	.
.	8dd	.
.	8gg	.
.	8bbJ	.
=138	=138	=138
2.r	8dddL	.
.	8ccc	.
.	8bb	.
.	8aa	.
.	8gg	.
.	8ffnJ	.
!!LO:LB:g=original
=139	=139	=139
8CL	4ee	.
8E	.	.
8G	8r	.
8cJ	8eL	.
4r	8g	.
.	8ccJ	.
=140	=140	=140
2.r	8eeL<	.
.	8e	.
.	8g	.
.	8cc	.
.	8ee	.
.	8gJ	.
=141	=141	=141
2.r	8ccL	.
.	8ee	.
.	8gg	.
.	8cc	.
.	8ee	.
.	8ggJ	.
=142	=142	=142
2.r	8cccL	.
.	8ee	.
.	8gg	.
.	8ccc	.
.	8eee	.
.	8dddJ	.
=143	=143	=143
8AAL	4ccc#	.
8C#	.	.
8E	8r	.
8GJ	8c#L	.
4r	8e	.
.	8gJ	.
=144	=144	=144
2.r	8cc#L<	.
.	8e	.
.	8g	.
.	8cc#	.
.	8ee	.
.	8gJ	.
!!LO:LB:g=original
=145	=145	=145
2.r	8cc#L	.
.	8ee	.
.	8gg	.
.	8cc#	.
.	8ee	.
.	8ggJ	.
=146	=146	=146
4r	(8ccc#L	.
.	8eee	.
*clefG2	*	*
4c# 4e	8aa	.
.	8bb	.
4e 4g	8aa	.
.	8bbJ)	.
=147	=147	=147
(8d 8f#L	2.ff# 2.aa	<
8g	.	.
8a	.	.
8b	.	.
8cc#	.	.
8ddJ	.	.
=148	=148	=148
8cc#L	2.gg 2.aa	.
8b	.	.
8a	.	.
8g	.	.
8f#	.	.
8eJ)	.	.
*clefF4	*	*
=149	=149	=149
(8dL	2.aa 2.cccn	sf
8cn	.	.
8B	.	.
8A	.	.
8G	.	.
8F#J	.	.
=150	=150	=150
8GL	4gg 4bb	p
8A	.	.
8B	4gg 4bb	.
8c#	.	.
8d	4gg 4bb	.
8eJ)	.	.
*clefG2	*	*
!!LO:LB:g=original
=151	=151	=151
(8d 8f#L	2.ff# 2.aa	<
8g	.	.
8a	.	.
8b	.	.
8cc#	.	.
8ddJ	.	.
=152	=152	=152
8cc#L	2.gg 2.aa	.
8b	.	.
8a	.	.
8g	.	.
8f#	.	.
8eJ)	.	.
*clefF4	*	*
=153	=153	=153
(8dL	2.aa 2.cccn	sf
8cn	.	.
8B	.	.
8A	.	.
8G	.	.
8F#J	.	.
=154	=154	=154
8GL	4gg 4bb	p
8A	.	.
8B	4gg 4bb	.
8c#	.	.
8d	4gg 4bb	.
8eJ)	.	.
*clefG2	*	*
=155	=155	=155
[2.d 2.f# 2.a	8ff# (8aaL	p
.	8gg	.
.	8aa	.
.	8bb	.
.	8ccc#	.
.	8dddJ	.
=156	=156	=156
2.d] 2.e 2.g	8ccc#L	.
.	8bb	.
.	8aa	.
.	8gg	.
.	8ff#	.
.	8eeJ)	.
!!LO:LB:g=original
=157	=157	=157
[2.d 2.g 2.cc#	(8ggL	.
.	8aa	.
.	8bb	.
.	8ccc#	.
.	8ddd	.
.	8eeeJ	.
=158	=158	=158
2.d] 2.f# 2.a	8dddL	.
.	8cccn	.
.	8bb	.
.	8aa	.
.	8gg	.
.	8ff#J)	.
=159	=159	=159
*	*8va	*
2.d 2.f# 2.a 2.ccn	8aaL	.
.	8cccn	.
.	8fff#	.
.	8ccc	.
.	8aaa	.
.	8fff#J	.
=160	=160	=160
2.e- 2.f# 2.a 2.cc	8aaaL	sf
.	8fff#	.
.	8aaa	.
.	8fff#	.
.	8aaa	.
.	8fff#J	.
=161	=161	=161
2d 2f# 2a 2cc	8aaaL	sf
.	8fff#	.
.	8ddd	.
.	8eee	.
4c 4f# 4a	8fff#	.
.	8dddJ	.
=162	=162	=162
2B 2d 2g	8gggL	>
.	8ddd	.
.	8ggg	.
.	8ddd	.
4G 4d 4g	8bb	.
.	8ggJ	.
!!LO:LB:g=original
=163	=163	=163
2.d 2.f# 2.a 2.cc	8aaL	.
.	8ccc	.
.	8fff#	.
.	8ccc	.
.	8aaa	.
.	8fff#J	.
=164	=164	=164
2.e- 2.f# 2.a 2.cc	8aaaL	sf
.	8fff#	.
.	8aaa	.
.	8fff#	.
.	8aaa	.
.	8fff#J	.
=165	=165	=165
2d 2f# 2a 2cc	8aaaL	sf
.	8fff#	.
.	8ddd	.
.	8eee	.
4c 4f# 4a	8fff#	.
.	8dddJ	.
=166	=166	=166
2B 2d 2g	8gggL	>
.	8ddd	.
.	8ggg	.
.	8ddd	.
4G 4d 4g	8bb	.
.	8ggJ	.
=167	=167	=167
4c 4e 4g	8eeeL	p
.	8ccc	.
4r	8eee	.
.	8ccc	.
4c 4e 4a	8gg	.
.	8eeJ	.
=168	=168	=168
4d 4g 4b	2dd	.
*	*X8va	*
4r	.	.
4d 4f# 4cc	4aa	.
*clefF4	*	*
=169	=169	=169
8G 8BL	4gg'	f
8d	.	.
8G 8B	4dd' 4ddd'	.
8d	.	.
8G 8B	4g' 4gg'	.
8dJ	.	.
!!LO:LB:g=original
=170	=170	=170
8G 8A 8cL	4r	.
8d	.	.
8G 8A 8c	4cc' 4ccc'	.
8d	.	.
8G 8A 8c	4f#' 4ff#'	.
8dJ	.	.
=171	=171	=171
*>B1	*>B1	*>B1
4r	4r	.
4D'/	4d' 4dd'	p
4BB'	4B' 4b'	.
=172	=172	=172
4r	4r	.
4C'	4c' 4cc'	.
4AA'	4A' 4a'	.
=173	=173	=173
4r	4r	.
4BB 4B	4b 4bb	f
4GG#\ 4G#\	4g# 4gg#	.
=174	=174	=174
4r	4r	.
4AA/ 4A/	4a 4aa	.
4FF# 4F#	4f# 4ff#	.
=175:|!	=175:|!	=175:|!
*>B2	*>B2	*>B2
8BBL	4r	p
8D	.	.
8BB	4d 4dd	.
8D	.	.
8BB	4G 4g	.
8DJ	.	.
=176	=176	=176
*>C	*>C	*>C
8AAL	4r	.
8D	.	.
8AA	4c 4cc	.
8D	.	.
8DD	4F# 4f#	.
8DJ	.	.
!!LO:LB:g=original
=177	=177	=177
8G 8BL	4r	f
8d	.	.
8G 8B	4dd 4ddd	.
8d	.	.
8G 8B	4g 4gg	.
8dJ	.	.
=178	=178	=178
8G 8A 8cL	4r	.
8d	.	.
8G 8A 8c	4cc 4ccc	.
8d	.	.
8G 8A 8c	4f# 4ff#	.
8dJ	.	.
=179	=179	=179
8BBL	4r	.
8D	.	.
!	!	!LO:DY:rj
8BB	4d 4dd	p
8D	.	.
8BB	4G 4g	.
8DJ	.	.
=180	=180	=180
8AAL	4r	.
8D	.	.
8AA	4c 4cc	.
8D	.	.
8DD	4F# 4f#	.
8DJ	.	.
=181	=181	=181
4GG	8g 8bL	f
.	8d	.
4BB	8g 8b	.
.	8d	.
4GG	8g 8b	.
.	8dJ	.
=182	=182	=182
(2D/	8g 8bL	.
.	8d	.
.	8g 8b	.
.	8d	.
8CL	8g 8b	.
8BBJ)	8dJ	.
!!LO:LB:g=original
=183	=183	=183
(8AAL	8g 8bL	.
8GG	8d	.
8FF#	8g 8b	.
8GG	8d	.
8BB	8g 8b	.
8GGJ)	8dJ	.
=184	=184	=184
(4FF#	8g 8ccL	.
.	8c	.
4EE)	8g 8cc	.
.	8c	.
4EE	8g 8cc	.
.	8cJ	.
=185	=185	=185
8C 8EL	4a'	f
8A	.	.
8C 8E	4cc'	.
8A	.	.
8C 8E	4a'	.
8AJ	.	.
=186	=186	=186
8C 8EL	(2ee	sf
8A	.	.
8C 8E	.	.
8A	.	.
8C 8E	8ddL	.
8AJ	8ccJ)	.
=187	=187	=187
8D 8AL	(8bL	.
8c	8a	.
8D 8A	8cc	.
8c	8a	.
8D 8A	8f#	.
8cJ	8aJ)	.
=188	=188	=188
8G 8BL	(4a	.
8d	.	.
8G 8B	4g)	.
8d	.	.
8G 8B	4g	.
8dJ	.	.
!!LO:LB:g=original
=189	=189	=189
(8qF#	.	.
4G)	8b 8ddL	.
.	8g	.
(8qA#	.	.
4B)	8b 8dd	.
.	8g	.
(8qF#	.	.
4G)	8b 8dd	.
.	8gJ	.
=190	=190	=190
(8qc#	.	.
!LO:DY:rj	!	!
(2dz)	8b 8ddL<	.
.	8g	.
.	8b 8dd	.
.	8g	.
8cnL	8b 8dd	.
8BJ)	8gJ	.
=191	=191	=191
(8AL	8b 8ddL<	.
8G	8g	.
8F#	8b 8dd	.
8G	8g	.
8B	8b 8dd	.
8GJ)	8gJ	.
=192	=192	=192
(4F#	8cc 8ggL	.
.	8g	.
4E)	8cc 8gg	.
.	8g	.
4E'	8cc 8gg	.
.	8gJ	.
=193	=193	=193
.	(8qgg#	.
8C 8EL	4aa)	f
8A	.	.
.	(8qbb	.
8C 8E	4ccc)	.
8A	.	.
.	(8qgg#	.
8C 8E	4aa)	.
8AJ	.	.
=194	=194	=194
.	(8qddd#	.
8C 8EL	(2eee)	sf
8A	.	.
8C 8E	.	.
8A	.	.
8C 8E	8dddnL	.
8AJ	8cccJ)	.
!!LO:LB:g=original
=195	=195	=195
8D 8AL	(8bbL	.
8c	8aa	.
8D 8A	8ccc	.
8c	8aa	.
8D 8A	8ff#	.
8cJ	8aaJ)	.
=196	=196	=196
!	!	!LO:DY:i:t=%s dolce leggieremente
4GG	8ggL	p
.	8dd	.
4B 4d	8bb	.
.	8gg	.
4G 4B	8dd	.
.	8bJ	.
=197	=197	=197
4GG	8ggL	.
.	8dd	.
4B 4d	8bb	.
.	8gg	.
4G 4B	8dd	.
.	8bJ	.
=198	=198	=198
4GG	8ggL	.
.	8dd	.
4B 4d	8bb	.
.	8gg	.
4G 4B	8dd	.
.	8bJ	.
=199	=199	=199
4D	8ff#L	.
.	8dd	.
4A 4c	8aa	.
.	8ff#	.
4F# 4A	8dd	.
.	8ccJ	.
=200	=200	=200
4GG	8ddL	.
.	8b	.
4B 4d	8gg	.
.	8dd	.
4G 4B	8b	.
.	8gJ	.
!!LO:LB:g=original
=201	=201	=201
4GG	8ddL	.
.	8b	.
4B 4d	8gg	.
.	8dd	.
4G 4B	8b	.
.	8gJ	.
=202	=202	=202
4GG	8ddL	.
.	8b	.
4B 4d	8gg	.
.	8dd	.
4G 4B	8b	.
.	8gJ	.
=203	=203	=203
4D	8ccL<	.
.	8a	.
4A 4c	8dd	.
.	8cc	.
4D 4A	8a	.
.	8f#J	.
=204	=204	=204
8GGGL	4g	.
8BBB	.	.
8DD	8r	.
8GG	8GL	.
8BB	8B	.
8DJ	8dJ	.
=205	=205	=205
*ped	*	*
4GG	8gL	.
.	8b	.
4r	8dd	.
.	8gg	.
4r	8bb	.
.	8dddJ	.
=206	=206	=206
*Xped	*	*
2.r;	4ggg	.
.	4r	.
.	4r;	.
==	==	==
*-	*-	*-
!!!RDF**kern: > = above
!!!RDF**kern: < = below
!!!RDF**dynam: > = dimin.
!!!verovio: beamFrenchStyle
!!!LOR: Durand 1915, plates 9327/9328, Paul Dukas, ed.
!!!PED: Dukas, Paul
!!!URL-vhv: https://verovio.humdrum.org/?file=beethoven/sonatas/sonata25-1.krn
!!!URL-pdf: https://github.com/craigsapp/beethoven-piano-sonatas/blob/master/reference-edition/sonata25-1.pdf
!!!ENC: Craig Stuart Sapp
!!!END: 2005/08/23
!!!EED: Craig Stuart Sapp
!!!EEV: 2014/07/13
